X:1
T:Hey Polka
L:1/4
M:4/4
I:linebreak $
K:D
V:1 treble
V:1
 A G |:"D" F A d F | A A/B/ A B/A/ |"G" G B d G | B2 B c/B/ |$
 "A"A c e e/f/ | g f e d |1  c d/c/ B c/B/ |"D" A2 A G :|2 c A B c | "D"d2 A G |:$
|:"D" FAdA|FAdA | "G" GBdB|GBdB | "A" Acee/f/ | $
gfed|1 cd/c/Bc/B/|"D"A2 AG:|2 cABc | "D" defg | $
|: "D "a a/a/ a a/a/ | a g f e |"G" d3/2 B/ B B |"Shout" "\"HEY\""  B2 z2 |"A" A c e e/f/ ||$
 g f e d |1 c d/c/ B c/B/ | "D" A e f g :|2 c A B c |"D" d2 |]
